packages/tokens/icons/cartNew/size24Px.svg

<svg viewBox="0 0 24 24" fill="none" xmlns="http://www.w3.org/2000/svg" width="1em" height="1em"><circle cx="8.5" cy="18.5" r="1" stroke="currentColor"/><circle cx="16.5" cy="18.5" r="1" stroke="currentColor"/><path d="M2.5 3.5L4.5 3.5L8 13.5" stroke="currentColor" stroke-linecap="round" stroke-linejoin="round"/><path d="M5.5 5.5L19.6398 5.5C20.3144 5.5 20.7955 6.15434 20.5943 6.79827L18.9386 12.0966C18.6777 12.9315 17.9044 13.5 17.0296 13.5L7.53571 13.5C6.98343 13.5 6.53571 13.9477 6.53571 14.5V14.5C6.53571 15.0523 6.98343 15.5 7.53571 15.5L17.7857 15.5" stroke="currentColor" stroke-linecap="round"/></svg>

<svg xmlns="http://www.w3.org/2000/svg" fill="none" viewBox="0 0 24 24" width="1em" height="1em"><circle cx="8.5" cy="18.5" r="1" stroke="currentColor"/><circle cx="16.5" cy="18.5" r="1" stroke="currentColor"/><path stroke="currentColor" stroke-linecap="round" stroke-linejoin="round" d="M2.5 3.5h2l3.5 10"/><path stroke="currentColor" stroke-linecap="round" d="M5.5 5.5h14.14a1 1 0 0 1 .954 1.298l-1.655 5.299a2 2 0 0 1-1.91 1.403H7.537a1 1 0 0 0-1 1v0a1 1 0 0 0 1 1h10.25"/></svg>
